X:8
T:Rêverie (pour Gaëtan)
C:Bruno Scherrer
L:1/8
%%score 2 1 3
M:4/4
K:Dmaj
V:1
AB|:c4-cd3-|d4(3c2B2A2|BcG6-|G2=F3_E3|
E3B-B4-|B8|z8| [1z6AB:| [2z8 | 
a3e3d2-|d8|a3e3d2-|d8|
a3e3d2-|d6=cd-|d8|z8|
a3e3d2-|d8|a3e3d2-|d8|
a3e3d2-|d6=cB-|B8|BA3AG3|
GA2A-A4-|A8|z8|z8|
z8|z8|z8|z6AB
%Warning : No repeat expected, found :|
:|
V:2
x2|:"^A""A"x7 "F/A"x 
%Error : Bar 35 is 5/4 not 4/4
| x8 | "A"x7 "F/A"x | x8 | 
| "A"x7 "F/A"x | x8 | "A"x7 "F/A"x |x8 |x8 |
| "BbΔ"x8 | x8 | "Bm7"x8 | x8 | 
| "^B""C6"x8 | x8 | "C6"x8 | x8 |
| "FΔ"x8 | x8 | "F#m7"x8 | x8 | 
| "G6"x8 | x8 | "G6"x8 | x8 |
| "^A'""A"x7 "F/A"x | x8 | "A"x7 "F/A"x | x8 | 
| "A"x7 "F/A"x | x8 | "A"x7 "F/A"x |x8 |
| x8 | x8 | x8 | x8 |:|
V:3
z2|:A,,3E,2A,2=F,-
%Error : Bar 82 is 5/4 not 4/4
|=F,8 | A,,3E,2A,2=F,-|=F,8 |
A,,3E,2A,2=F,-|=F,8 | A,,3E,2A,2=F,-| =F,8:| =F,8 |
_B,,3=F,3A,2-|A,8 | B,,3F,3A,2-|A,8|
=C,3G,3A,2-|A,8|=C,3G,3A,2-|A,8|
=F,,3=C,3E,2-|E,8|F,,3C,3E,2-|E,8|
G,,3D,3E,2-|E,8|G,,3D,3E,2-|E,8|
A,,3E,2A,2=F,-|=F,8 | A,,3E,2A,2=F,-|=F,8 |
A,,3E,2A,2=F,-|=F,8 | A,,3E,2A,2=F,-|=F,8
%Warning : No repeat expected, found :|
:|
%%begintext
Globalement calme, encore plus calme sur B
Thème
Solos
Thème + fin sur les accords G Eb/G
%%endtext

%%newpage
